Origami/16x16/apps/to-the-moon.svg

<svg width="16" height="16" version="1" xmlns="http://www.w3.org/2000/svg">
 <circle cx="8" cy="8" r="8" style="fill:#7a509e"/>
 <g transform="matrix(.89285716 0 0 .89285716 .85714272 .85714272)">
  <circle transform="scale(-1,1)" cx="-8" cy="8" r="5.6" style="fill:#fae8a2"/>
  <path d="m8.52892 2.430072a5.6 5.6 0 0 1 2.02664 0.587888c-0.02828 0.089628 0.0048 0.190736 0.1078 0.28 0.06972 0.060424 0.12684 0.154532 0.12684 0.209468 0 0.167916-0.15176 0.42574-0.273 0.463204-0.161 0.04984-0.10696 0.221648 0.10024 0.316568 0.09576 0.04396 0.21364 0.17052 0.2618 0.28112 0.04844 0.11088 0.11956 0.22008 0.1582 0.24276 0.03836 0.02296 0.07 0.10948 0.07 0.19264 0 0.1162-0.0532 0.17248-0.22764 0.2422-0.12488 0.05012-0.2744 0.08652-0.33236 0.08092-0.33348-0.03136-0.35672 0.16296-0.06524 0.54264 0.15484 0.2016 0.22932 0.25228 0.33488 0.2268 0.09828-0.02352 0.15204 0.0042 0.19684 0.10164 0.04704 0.10332 0.12432 0.13832 0.3318 0.1526 0.20412 0.01428 0.2954 0.05572 0.37184 0.16744 0.056 0.08148 0.13664 0.14756 0.17948 0.14756 0.04295 0 0.143808 0.05488 0.224224 0.12152 0.163632 0.1358 0.227528 0.14952 0.2849 0.06076 0.07582-0.1176 0.239428-0.05824 0.482888 0.175 0.21532 0.20608 0.241388 0.26124 0.208908 0.44016-0.05779 0.31836-0.230468 0.60088-0.427644 0.69944-0.17206 0.08596-0.17542 0.0952-0.07109 0.20552 0.06 0.06356 0.16296 0.1316 0.228592 0.15148 0.18956 0.05768 0.08285 0.12992-0.255388 0.17304-0.346192 0.04396-0.453768 0.1694-0.29204 0.34048 0.09019 0.09548 0.08512 0.1134-0.05961 0.20412-0.2828 0.17752-0.507696 0.06888-0.242256-0.11704 0.170604-0.11956 0.0513-0.16828-0.19908-0.08148-0.19964 0.06916-0.23912 0.06524-0.357-0.03724-0.2422-0.20972-0.5054 0.10052-0.28392 0.3346 0.14084 0.14924 0.09828 0.329-0.08428 0.35392-0.08064 0.01092-0.24808 0.08596-0.3724 0.16688-0.12432 0.08064-0.25984 0.147-0.30072 0.147s-0.15624 0.08204-0.25648 0.18228c-0.20328 0.203-0.31612 0.22876-0.37352 0.08568-0.068884-0.17192-0.041164-0.26068 0.144476-0.46312 0.14756-0.16128 0.38752-0.58968 0.38752-0.69244 0-0.06328-0.24388-0.00952-0.38052 0.08372-0.0854 0.05852-0.22372 0.13384-0.30744 0.168-0.08904 0.0364-0.18144 0.14952-0.22372 0.27328-0.0658 0.19432-0.09184 0.21112-0.3248 0.21112h-0.25312l-0.03836 0.455c-0.04592 0.5474-0.08988 0.65828-0.27776 0.70336-0.13832 0.03332-0.28588 0.24752-0.28588 0.41496 0 0.04452 0.0994 0.15372 0.22092 0.24248 0.15064 0.11004 0.2156 0.20356 0.20552 0.29512-0.0126 0.11452 0.01344 0.13244 0.17556 0.1204 0.10444-0.0078 0.28588 0.02884 0.40236 0.08148 0.13804 0.06216 0.28756 0.08204 0.42784 0.05684 0.16128-0.02884 0.21588-0.01764 0.21588 0.04536 0 0.04648 0.05656 0.13328 0.12544 0.1932 0.17024 0.14756 0.09996 0.22568-0.16156 0.17864-0.1624-0.02912-0.22568-0.01624-0.25368 0.05376-0.05964 0.14868 0.09156 0.36148 0.23184 0.32648 0.08904-0.0224 0.1316 0.0081 0.15932 0.11312 0.00952 0.03724 0.02716 0.06888 0.04816 0.09576a5.6 5.6 0 0 1 -0.8862 0.2618c0.028-0.05348 0.05992-0.1022 0.091-0.12404 0.1442-0.10192 0.0476-0.3668-0.15092-0.4144-0.20244-0.04872-0.17052-0.18004 0.04956-0.20524 0.19292-0.02184 0.39816-0.21728 0.33376-0.31724-0.0434-0.06692-0.22792-0.05712-0.60116 0.03136-0.16856 0.03976-0.28364-0.04032-0.67424-0.4676-0.22596-0.24752-0.39984-0.35056-0.59052-0.35056-0.0728 0-0.33236-0.06692-0.57708-0.14868-0.462-0.15484-0.6426-0.14924-0.62552 0.0196 0.03528 0.35112-0.19068 0.33936-0.55888-0.02856-0.15344-0.15316-0.29372-0.26404-0.31192-0.24668-0.07028 0.06748 0.05628 0.39592 0.20412 0.52892 0.18732 0.16856 0.19656 0.27496 0.03164 0.35924-0.09016 0.04648-0.12852 0.14028-0.1428 0.35112l-0.01904 0.28784h-0.23408c-0.08204 0-0.15008 0.0112-0.20496 0.0322a5.6 5.6 0 0 1 -2.7132 -4.62168c0.08568-0.18312 0.07952-0.29372 0-0.41832a5.6 5.6 0 0 1 0.0252 -0.31388c0.05096-0.00252 0.10304-0.00476 0.16296-0.00224 0.28224 0.01176 0.52388-0.0994 0.52388-0.24108 0-0.02996 0.10024-0.15344 0.2226-0.27412 0.13888-0.13664 0.21-0.2576 0.18928-0.32032-0.01904-0.05712 0.02184-0.14924 0.09408-0.21168 0.07028-0.06104 0.12796-0.15904 0.12796-0.21784 0-0.0938 0.05964-0.10556 0.49112-0.0952l0.49112 0.01204-0.0084 0.48412c-0.01456 0.84784-0.14084 1.06792-0.53032 0.92596-0.17836-0.06524-0.61656-0.01596-0.74116 0.08288-0.04508 0.03584-0.11032 0.16576-0.14476 0.28896-0.03472 0.12292-0.16296 0.336-0.2856 0.47292-0.24808 0.27776-0.2674 0.38612-0.12516 0.71204 0.12404 0.28448 0.25788 0.25172 0.23128-0.05684l-0.0196-0.2296 0.21 0.0392c0.1162 0.02212 0.2618 0.1078 0.32704 0.19264 0.09296 0.12068 0.13636 0.13832 0.20608 0.08316 0.04872-0.03864 0.0882-0.12012 0.0882-0.1806s0.05992-0.12768 0.13272-0.1498c0.07308-0.02212 0.17304-0.13216 0.22204-0.245 0.07868-0.18032 0.07672-0.23548-0.01484-0.45444-0.09268-0.22204-0.09352-0.25872-0.00812-0.34076 0.0784-0.07504 0.119-0.07756 0.22204-0.01568 0.1036 0.06188 0.1526 0.0574 0.2758-0.0252 0.08204-0.05516 0.22568-0.1008 0.31864-0.1008 0.189 0 0.24612-0.09184 0.24612-0.39592 0-0.28084 0.16744-0.38276 0.56616-0.34608 0.27664 0.02548 0.33768 0.00728 0.56084-0.16464 0.13804-0.10612 0.35588-0.36148 0.48468-0.56812s0.2674-0.42252 0.308-0.47964c0.05824-0.0826 0.04396-0.16184-0.07-0.38668l-0.14392-0.2828 0.30408 0.04116c0.54096 0.07308 0.65044 0.14308 0.41776 0.26796-0.09072 0.04844-0.09464 0.07336-0.02464 0.15428 0.04592 0.05264 0.06748 0.13636 0.0476 0.18592-0.01988 0.04928 0.00532 0.16576 0.05572 0.25844 0.05068 0.09296 0.09296 0.22316 0.09464 0.29008 0.00532 0.2086 0.3626 0.37464 0.76076 0.35252 0.60312-0.03332 0.65212-0.0238 0.86632 0.175 0.26768 0.24864 0.30212 0.36428 0.17752 0.595-0.12068 0.224-0.33516 0.31332-0.70644 0.29484-0.33208-0.01652-0.3696 0.01288-0.29372 0.2324 0.06468 0.18648 0.2814 0.25816 0.4284 0.14168 0.11312-0.08988 0.50316-0.02044 0.62272 0.11116 0.05012 0.05488 0.1246 0.19936 0.1652 0.32032 0.07 0.20888 0.09044 0.22176 0.40404 0.252 0.31304 0.03052 0.34328 0.02044 0.5684-0.18704 0.25116-0.23128 0.29372-0.40824 0.17276-0.71288-0.05376-0.13496-0.09352-0.15708-0.23688-0.13076-0.28392 0.0518-0.39592-0.04676-0.39592-0.35 0-0.147 0.02856-0.28448 0.06356-0.3052 0.03472-0.02072 0.06328-0.09856 0.06328-0.17332s0.03584-0.17108 0.07924-0.21336c0.06356-0.0616 0.05432-0.09464-0.04704-0.16632-0.06944-0.049-0.18368-0.08204-0.25368-0.07364-0.06972 0.0084-0.26264-0.02184-0.42868-0.06692-0.23996-0.06468-0.31052-0.11368-0.343-0.23996-0.0616-0.23968-0.21196-0.43204-0.33796-0.43204-0.19908 0-0.20328-0.46816-0.0098-1.14912 0.02856-0.10052 0.10724-0.16436 0.24612-0.1988 0.11256-0.028 0.23492-0.10472 0.27188-0.170744 0.03668-0.066024 0.10416-0.119784 0.1498-0.119784s0.13496-0.054656 0.19796-0.121408c0.06356-0.0672 0.19488-0.121408 0.29484-0.121408 0.2366 0 0.24052-0.162904 0.0059-0.248808-0.24782-0.090832-0.63366 0.028224-0.7269 0.224196-0.12628 0.265748-0.26656 0.154868-0.31164-0.246624-0.05572-0.49658-0.22708-0.639296-0.7672-0.639296h-0.38836l0.17024-0.170072c0.05292-0.053088 0.09688-0.117964 0.1274-0.18158zm-2.0132 0.176092c0.01092 0.00986 0.02156 0.01792 0.0322 0.02898 0.12992 0.132608 0.19096 0.151508 0.39172 0.120876 0.35056-0.053452 0.30548 0.087696-0.0826 0.258132-0.20972 0.092148-0.34468 0.197204-0.3906 0.303492-0.2212 0.512848-0.37352 0.788956-0.44996 0.816956-0.15456 0.05684-0.24668-0.057232-0.28112-0.348824-0.03948-0.334544-0.1526-0.405468-0.35588-0.222572-0.07896 0.07098-0.18928 0.129052-0.245 0.129052-0.17388 0-0.3024 0.069804-0.3024 0.16408 0 0.049672-0.0588 0.169372-0.13076 0.266224-0.10612 0.14252-0.17808 0.17668-0.37632 0.17668-0.24332 0-0.39256 0.04564-0.6972 0.21392-0.00476 0.00252-0.00952 0.00336-0.01428 0.00588a5.6 5.6 0 0 1 2.9022 -1.912876zm7.08316 5.36984a5.6 5.6 0 0 1 0.0011 0.02408 5.6 5.6 0 0 1 -0.109368 1.07576c-0.202888 0.0826-0.258944 0.04984-0.28-0.13888-0.01089-0.09772-0.06191-0.20832-0.113764-0.24668-0.08011-0.05908-0.06566-0.08932 0.09845-0.20132 0.106232-0.07252 0.210924-0.19908 0.232428-0.28112 0.02083-0.07952 0.09128-0.16632 0.171164-0.23184zm-1.762628 1.85108c0.05236-0.00532 0.115444 0.02268 0.185444 0.08988 0.148092 0.14168 0.12572 0.42644-0.04211 0.539-0.192332 0.12908-0.266532 0.09156-0.290892-0.14644-0.02996-0.29344 0.03276-0.4704 0.14756-0.48244zm-0.95032 0.84672c0.05712 2e-3 0.12012 0.04284 0.18312 0.12908 0.06692 0.09128 0.08512 0.20916 0.05964 0.38808-0.03164 0.22008-0.01792 0.26712 0.09716 0.3262 0.14812 0.0756 0.17976 0.30072 0.05852 0.41664-0.1204 0.11536-0.2352 0.08512-0.27664-0.0728-0.0588-0.22512-0.38836-0.25144-0.61348-0.04928-0.09604 0.08624-0.17444 0.12992-0.17444 0.09688s0.09996-0.15316 0.22204-0.26628c0.18676-0.1736 0.22148-0.24752 0.22148-0.47096 0-0.31528 0.0966-0.50148 0.2226-0.49756zm1.560692 0.72296a5.6 5.6 0 0 1 -0.129612 0.16352c0.03816-0.05908 0.08173-0.11564 0.129612-0.16352zm-1.887172 0.8596c0.02828 0.0098 0.04032 0.04536 0.04032 0.1078 0 0.06328 0.04032 0.12964 0.0896 0.14756 0.06552 0.02408 0.08064 0.09996 0.05544 0.28112-0.0048 0.03388-0.0062 0.06104-0.0078 0.08932a5.6 5.6 0 0 1 -0.23296 0.11956c0.0039-0.09688-0.01372-0.21084-0.0644-0.35364-0.08596-0.24248-0.08904-0.30324-0.01904-0.3458 0.06552-0.03976 0.11032-0.05572 0.13888-0.04592z" style="opacity:.2"/>
 </g>
</svg>

<svg xmlns="http://www.w3.org/2000/svg" width="16" height="16" version="1">
 <circle style="fill:#7a509e" cx="8" cy="8" r="8"/>
 <g transform="matrix(0.89285716,0,0,0.89285716,0.85714272,0.85714272)">
  <circle style="fill:#fae8a2" cx="-8" cy="8" r="5.6" transform="scale(-1,1)"/>
  <path style="opacity:0.2" d="m 8.52892,2.430072 a 5.6,5.6 0 0 1 2.02664,0.587888 c -0.02828,0.089628 0.0048,0.190736 0.1078,0.28 0.06972,0.060424 0.12684,0.154532 0.12684,0.209468 0,0.167916 -0.15176,0.42574 -0.273,0.463204 -0.161,0.04984 -0.10696,0.221648 0.10024,0.316568 0.09576,0.04396 0.21364,0.17052 0.2618,0.28112 0.04844,0.11088 0.11956,0.22008 0.1582,0.24276 0.03836,0.02296 0.07,0.10948 0.07,0.19264 0,0.1162 -0.0532,0.17248 -0.22764,0.2422 -0.12488,0.05012 -0.2744,0.08652 -0.33236,0.08092 -0.33348,-0.03136 -0.35672,0.16296 -0.06524,0.54264 0.15484,0.2016 0.22932,0.25228 0.33488,0.2268 0.09828,-0.02352 0.15204,0.0042 0.19684,0.10164 0.04704,0.10332 0.12432,0.13832 0.3318,0.1526 0.20412,0.01428 0.2954,0.05572 0.37184,0.16744 0.056,0.08148 0.13664,0.14756 0.17948,0.14756 0.04295,0 0.143808,0.05488 0.224224,0.12152 0.163632,0.1358 0.227528,0.14952 0.2849,0.06076 0.07582,-0.1176 0.239428,-0.05824 0.482888,0.175 0.21532,0.20608 0.241388,0.26124 0.208908,0.44016 -0.05779,0.31836 -0.230468,0.60088 -0.427644,0.69944 -0.17206,0.08596 -0.17542,0.0952 -0.07109,0.20552 0.06,0.06356 0.16296,0.1316 0.228592,0.15148 0.18956,0.05768 0.08285,0.12992 -0.255388,0.17304 -0.346192,0.04396 -0.453768,0.1694 -0.29204,0.34048 0.09019,0.09548 0.08512,0.1134 -0.05961,0.20412 -0.2828,0.17752 -0.507696,0.06888 -0.242256,-0.11704 0.170604,-0.11956 0.0513,-0.16828 -0.19908,-0.08148 -0.19964,0.06916 -0.23912,0.06524 -0.357,-0.03724 -0.2422,-0.20972 -0.5054,0.10052 -0.28392,0.3346 0.14084,0.14924 0.09828,0.329 -0.08428,0.35392 -0.08064,0.01092 -0.24808,0.08596 -0.3724,0.16688 -0.12432,0.08064 -0.25984,0.147 -0.30072,0.147 -0.04088,0 -0.15624,0.08204 -0.25648,0.18228 -0.20328,0.203 -0.31612,0.22876 -0.37352,0.08568 C 9.68224,10.09972 9.70996,10.01096 9.8956,9.80852 10.04316,9.64724 10.28312,9.21884 10.28312,9.11608 10.28312,9.0528 10.03924,9.10656 9.9026,9.1998 9.8172,9.25832 9.67888,9.33364 9.59516,9.3678 9.50612,9.4042 9.41372,9.51732 9.37144,9.64108 9.30564,9.8354 9.2796,9.8522 9.04664,9.8522 H 8.79352 l -0.03836,0.455 c -0.04592,0.5474 -0.08988,0.65828 -0.27776,0.70336 -0.13832,0.03332 -0.28588,0.24752 -0.28588,0.41496 0,0.04452 0.0994,0.15372 0.22092,0.24248 0.15064,0.11004 0.2156,0.20356 0.20552,0.29512 -0.0126,0.11452 0.01344,0.13244 0.17556,0.1204 0.10444,-0.0078 0.28588,0.02884 0.40236,0.08148 0.13804,0.06216 0.28756,0.08204 0.42784,0.05684 C 9.785,12.193 9.8396,12.2042 9.8396,12.2672 c 0,0.04648 0.05656,0.13328 0.12544,0.1932 0.17024,0.14756 0.09996,0.22568 -0.16156,0.17864 C 9.64108,12.60992 9.5778,12.6228 9.5498,12.6928 c -0.05964,0.14868 0.09156,0.36148 0.23184,0.32648 0.08904,-0.0224 0.1316,0.0081 0.15932,0.11312 0.00952,0.03724 0.02716,0.06888 0.04816,0.09576 a 5.6,5.6 0 0 1 -0.8862,0.2618 c 0.028,-0.05348 0.05992,-0.1022 0.091,-0.12404 C 9.33812,13.264 9.24152,12.99912 9.043,12.95152 8.84056,12.9028 8.87248,12.77148 9.09256,12.74628 9.28548,12.72444 9.49072,12.529 9.42632,12.42904 9.38292,12.36212 9.1984,12.37192 8.82516,12.4604 8.6566,12.50016 8.54152,12.42008 8.15092,11.9928 7.92496,11.74528 7.75108,11.64224 7.5604,11.64224 c -0.0728,0 -0.33236,-0.06692 -0.57708,-0.14868 -0.462,-0.15484 -0.6426,-0.14924 -0.62552,0.0196 C 6.39308,11.86428 6.16712,11.85252 5.79892,11.4846 5.64548,11.33144 5.5052,11.22056 5.487,11.23792 5.41672,11.3054 5.54328,11.63384 5.69112,11.76684 5.87844,11.9354 5.88768,12.0418 5.72276,12.12608 5.6326,12.17256 5.59424,12.26636 5.57996,12.4772 L 5.56092,12.76504 H 5.32684 c -0.08204,0 -0.15008,0.0112 -0.20496,0.0322 A 5.6,5.6 0 0 1 2.40868,8.17556 c 0.08568,-0.18312 0.07952,-0.29372 0,-0.41832 A 5.6,5.6 0 0 1 2.43388,7.44336 C 2.48484,7.44084 2.53692,7.4386 2.59684,7.44112 2.87908,7.45288 3.12072,7.34172 3.12072,7.20004 3.12072,7.17008 3.22096,7.0466 3.34332,6.92592 3.4822,6.78928 3.55332,6.66832 3.5326,6.6056 3.51356,6.54848 3.55444,6.45636 3.62668,6.39392 3.69696,6.33288 3.75464,6.23488 3.75464,6.17608 c 0,-0.0938 0.05964,-0.10556 0.49112,-0.0952 L 4.73688,6.09292 4.72848,6.57704 C 4.71392,7.42488 4.58764,7.64496 4.19816,7.503 4.0198,7.43776 3.5816,7.48704 3.457,7.58588 3.41192,7.62172 3.34668,7.75164 3.31224,7.87484 3.27752,7.99776 3.14928,8.21084 3.02664,8.34776 2.77856,8.62552 2.75924,8.73388 2.90148,9.0598 3.02552,9.34428 3.15936,9.31152 3.13276,9.00296 l -0.0196,-0.2296 0.21,0.0392 C 3.43936,8.83468 3.58496,8.92036 3.6502,9.0052 3.74316,9.12588 3.78656,9.14352 3.85628,9.08836 3.905,9.04972 3.94448,8.96824 3.94448,8.90776 3.94448,8.84728 4.0044,8.78008 4.0772,8.75796 4.15028,8.73584 4.25024,8.6258 4.29924,8.51296 4.37792,8.33264 4.37596,8.27748 4.2844,8.05852 4.19172,7.83648 4.19088,7.7998 4.27628,7.71776 4.35468,7.64272 4.39528,7.6402 4.49832,7.70208 c 0.1036,0.06188 0.1526,0.0574 0.2758,-0.0252 0.08204,-0.05516 0.22568,-0.1008 0.31864,-0.1008 0.189,0 0.24612,-0.09184 0.24612,-0.39592 0,-0.28084 0.16744,-0.38276 0.56616,-0.34608 C 6.18168,6.85956 6.24272,6.84136 6.46588,6.66944 6.60392,6.56332 6.82176,6.30796 6.95056,6.10132 7.07936,5.89468 7.21796,5.6788 7.25856,5.62168 7.3168,5.53908 7.30252,5.45984 7.18856,5.235 L 7.04464,4.9522 7.34872,4.99336 C 7.88968,5.06644 7.99916,5.13644 7.76648,5.26132 7.67576,5.30976 7.67184,5.33468 7.74184,5.4156 7.78776,5.46824 7.80932,5.55196 7.78944,5.60152 7.76956,5.6508 7.79476,5.76728 7.84516,5.85996 7.89584,5.95292 7.93812,6.08312 7.9398,6.15004 7.94512,6.35864 8.3024,6.52468 8.70056,6.50256 9.30368,6.46924 9.35268,6.47876 9.56688,6.67756 9.83456,6.9262 9.869,7.04184 9.7444,7.27256 9.62372,7.49656 9.40924,7.58588 9.03796,7.5674 8.70588,7.55088 8.66836,7.58028 8.74424,7.7998 8.80892,7.98628 9.02564,8.05796 9.17264,7.94148 9.28576,7.8516 9.6758,7.92104 9.79536,8.05264 c 0.05012,0.05488 0.1246,0.19936 0.1652,0.32032 0.07,0.20888 0.09044,0.22176 0.40404,0.252 C 10.67764,8.65548 10.70788,8.6454 10.933,8.43792 11.18416,8.20664 11.22672,8.02968 11.10576,7.72504 11.052,7.59008 11.01224,7.56796 10.86888,7.59428 c -0.28392,0.0518 -0.39592,-0.04676 -0.39592,-0.35 0,-0.147 0.02856,-0.28448 0.06356,-0.3052 C 10.57124,6.91836 10.5998,6.84052 10.5998,6.76576 10.5998,6.691 10.63564,6.59468 10.67904,6.5524 10.7426,6.4908 10.73336,6.45776 10.632,6.38608 10.56256,6.33708 10.44832,6.30404 10.37832,6.31244 10.3086,6.32084 10.11568,6.2906 9.94964,6.24552 9.70968,6.18084 9.63912,6.13184 9.60664,6.00556 9.54504,5.76588 9.39468,5.57352 9.26868,5.57352 9.0696,5.57352 9.0654,5.10536 9.25888,4.4244 9.28744,4.32388 9.36612,4.26004 9.505,4.2256 9.61756,4.1976 9.73992,4.12088 9.77688,4.054856 9.81356,3.988832 9.88104,3.935072 9.92668,3.935072 c 0.04564,0 0.13496,-0.054656 0.19796,-0.121408 0.06356,-0.0672 0.19488,-0.121408 0.29484,-0.121408 0.2366,0 0.24052,-0.162904 0.0059,-0.248808 C 10.17756,3.352616 9.79172,3.471672 9.69848,3.667644 9.5722,3.933392 9.43192,3.822512 9.38684,3.42102 9.33112,2.92444 9.15976,2.781724 8.61964,2.781724 H 8.23128 L 8.40152,2.611652 C 8.45444,2.558564 8.4984,2.493688 8.52892,2.430072 Z m -2.0132,0.176092 c 0.01092,0.00986 0.02156,0.01792 0.0322,0.02898 C 6.67784,2.767752 6.73888,2.786652 6.93964,2.75602 7.2902,2.702568 7.24512,2.843716 6.85704,3.014152 6.64732,3.1063 6.51236,3.211356 6.46644,3.317644 6.24524,3.830492 6.09292,4.1066 6.01648,4.1346 5.86192,4.19144 5.7698,4.077368 5.73536,3.785776 5.69588,3.451232 5.58276,3.380308 5.37948,3.563204 5.30052,3.634184 5.1902,3.692256 5.13448,3.692256 c -0.17388,0 -0.3024,0.069804 -0.3024,0.16408 0,0.049672 -0.0588,0.169372 -0.13076,0.266224 C 4.5952,4.26508 4.52324,4.29924 4.325,4.29924 4.08168,4.29924 3.93244,4.34488 3.6278,4.51316 3.62304,4.51568 3.61828,4.51652 3.61352,4.51904 a 5.6,5.6 0 0 1 2.9022,-1.912876 z m 7.08316,5.36984 a 5.6,5.6 0 0 1 0.0011,0.02408 5.6,5.6 0 0 1 -0.109368,1.07576 c -0.202888,0.0826 -0.258944,0.04984 -0.28,-0.13888 -0.01089,-0.09772 -0.06191,-0.20832 -0.113764,-0.24668 -0.08011,-0.05908 -0.06566,-0.08932 0.09845,-0.20132 0.106232,-0.07252 0.210924,-0.19908 0.232428,-0.28112 0.02083,-0.07952 0.09128,-0.16632 0.171164,-0.23184 z m -1.762628,1.85108 c 0.05236,-0.00532 0.115444,0.02268 0.185444,0.08988 0.148092,0.14168 0.12572,0.42644 -0.04211,0.539 -0.192332,0.12908 -0.266532,0.09156 -0.290892,-0.14644 -0.02996,-0.29344 0.03276,-0.4704 0.14756,-0.48244 z m -0.95032,0.84672 c 0.05712,0.002 0.12012,0.04284 0.18312,0.12908 0.06692,0.09128 0.08512,0.20916 0.05964,0.38808 -0.03164,0.22008 -0.01792,0.26712 0.09716,0.3262 0.14812,0.0756 0.17976,0.30072 0.05852,0.41664 -0.1204,0.11536 -0.2352,0.08512 -0.27664,-0.0728 -0.0588,-0.22512 -0.38836,-0.25144 -0.61348,-0.04928 -0.09604,0.08624 -0.17444,0.12992 -0.17444,0.09688 0,-0.03304 0.09996,-0.15316 0.22204,-0.26628 0.18676,-0.1736 0.22148,-0.24752 0.22148,-0.47096 0,-0.31528 0.0966,-0.50148 0.2226,-0.49756 z m 1.560692,0.72296 a 5.6,5.6 0 0 1 -0.129612,0.16352 c 0.03816,-0.05908 0.08173,-0.11564 0.129612,-0.16352 z m -1.887172,0.8596 c 0.02828,0.0098 0.04032,0.04536 0.04032,0.1078 0,0.06328 0.04032,0.12964 0.0896,0.14756 0.06552,0.02408 0.08064,0.09996 0.05544,0.28112 -0.0048,0.03388 -0.0062,0.06104 -0.0078,0.08932 a 5.6,5.6 0 0 1 -0.23296,0.11956 c 0.0039,-0.09688 -0.01372,-0.21084 -0.0644,-0.35364 -0.08596,-0.24248 -0.08904,-0.30324 -0.01904,-0.3458 0.06552,-0.03976 0.11032,-0.05572 0.13888,-0.04592 z"/>
 </g>
</svg>
